Sweet-Rainbow/icons/stoplight.svg

<?xml version="1.0" encoding="UTF-8" standalone="no"?>
<!-- Generator: Gravit.io -->

<svg
   xmlns:dc="http://purl.org/dc/elements/1.1/"
   xmlns:cc="http://creativecommons.org/ns#"
   xmlns:rdf="http://www.w3.org/1999/02/22-rdf-syntax-ns#"
   xmlns:svg="http://www.w3.org/2000/svg"
   xmlns="http://www.w3.org/2000/svg"
   xmlns:sodipodi="http://sodipodi.sourceforge.net/DTD/sodipodi-0.dtd"
   xmlns:inkscape="http://www.inkscape.org/namespaces/inkscape"
   style="isolation:isolate"
   viewBox="0 0 36 36"
   width="48"
   height="48"
   version="1.1"
   id="svg9"
   sodipodi:docname="stoplight.svg"
   inkscape:version="0.92.4 (5da689c313, 2019-01-14)">
  <metadata
     id="metadata15">
    <rdf:RDF>
      <cc:Work
         rdf:about="">
        <dc:format>image/svg+xml</dc:format>
        <dc:type
           rdf:resource="http://purl.org/dc/dcmitype/StillImage" />
        <dc:title></dc:title>
      </cc:Work>
    </rdf:RDF>
  </metadata>
  <defs
     id="defs13" />
  <sodipodi:namedview
     pagecolor="#ffffff"
     bordercolor="#666666"
     borderopacity="1"
     objecttolerance="10"
     gridtolerance="10"
     guidetolerance="10"
     inkscape:pageopacity="0"
     inkscape:pageshadow="2"
     inkscape:window-width="640"
     inkscape:window-height="480"
     id="namedview11"
     showgrid="false"
     inkscape:zoom="29.365243"
     inkscape:cx="25.325443"
     inkscape:cy="32"
     inkscape:current-layer="svg9"
     units="px" />
  <linearGradient
     id="_lgradient_30"
     x1="0.061897106"
     y1="0.14716151"
     x2="0.99042481"
     y2="0.98658085"
     gradientTransform="matrix(32.83,0,0,47,7.585,0.5)"
     gradientUnits="userSpaceOnUse">
    <stop
       offset="0%"
       stop-opacity="1"
       style="stop-color:rgb(22,181,228)"
       id="stop2" />
    <stop
       offset="98.26086956521739%"
       stop-opacity="1"
       style="stop-color:rgb(245,32,250)"
       id="stop4" />
  </linearGradient>
  <g
     id="g826"
     transform="matrix(0.76595745,0,0,0.76595745,-0.3829788,-0.3829788)">
    <path
       id="path7"
       d="M 22.694,8.44 H 10.585 c -1.656,0 -3,1.344 -3,3 v 16.98 c 0,1.656 1.344,3 3,3 h 21.31 c 0.552,0 1,0.448 1,1 v 8.46 c 0,0.552 -0.448,1 -1,1 h -15.69 c -0.552,0 -1,-0.448 -1,-1 v -5.13 0 c 0,-1.104 -0.896,-2 -2,-2 v 0 c -1.104,0 -2,0.896 -2,2 v 0 7.13 c 0,1.656 1.344,3 3,3 h 4.422 v 0.62 c 0,0.552 0.448,1 1,1 h 1.615 c 0.552,0 1,-0.448 1,-1 v -0.62 h 3.615 v 0 0 0 0.62 c 0,0.552 0.448,1 1,1 h 1.616 c 0.552,0 1,-0.448 1,-1 v -0.62 h 4.422 c 1.656,0 3,-1.344 3,-3 V 30.42 c 0,-1.656 -1.344,-3 -3,-3 h -21.31 c -0.552,0 -1,-0.448 -1,-1 V 13.44 c 0,-0.552 0.448,-1 1,-1 h 22.83 c 0.552,0 1,0.448 1,1 v 8.75 0 c 0,1.104 0.896,2 2,2 v 0 c 1.104,0 2,-0.896 2,-2 v 0 -10.75 c 0,-1.656 -1.344,-3 -3,-3 H 25.405 V 6.521 c 0.324,-0.155 0.621,-0.365 0.877,-0.625 0.597,-0.588 0.931,-1.392 0.931,-2.233 0,-0.84 -0.334,-1.645 -0.931,-2.232 C 25.695,0.834 24.89,0.5 24.05,0.5 c -0.841,0 -1.645,0.334 -2.233,0.931 -0.596,0.587 -0.931,1.392 -0.931,2.232 v 0 0 c 0,0.841 0.335,1.645 0.931,2.233 0.256,0.26 0.553,0.47 0.877,0.625 z m -5.779,8.233 h 3.423 c 0.552,0 1,0.448 1,1 v 1.615 c 0,0.552 -0.448,1 -1,1 h -3.423 c -0.552,0 -1,-0.448 -1,-1 v -1.615 c 0,-0.552 0.448,-1 1,-1 z m 10.846,0 h 3.423 c 0.552,0 1,0.448 1,1 v 1.615 c 0,0.552 -0.448,1 -1,1 h -3.423 c -0.552,0 -1,-0.448 -1,-1 v -1.615 c 0,-0.552 0.448,-1 1,-1 z M 22.694,3.663 c 0,-0.361 0.144,-0.705 0.398,-0.958 0.253,-0.253 0.596,-0.397 0.958,-0.397 0.361,0 0.705,0.144 0.958,0.397 0.253,0.253 0.397,0.597 0.397,0.958 0,0.362 -0.144,0.705 -0.397,0.959 -0.253,0.253 -0.597,0.397 -0.958,0.397 -0.362,0 -0.705,-0.144 -0.958,-0.397 C 22.838,4.368 22.694,4.025 22.694,3.663 Z"
       inkscape:connector-curvature="0"
       style="fill:url(#_lgradient_30);fill-rule:evenodd" />
  </g>
</svg>

<?xml version="1.0" encoding="UTF-8" standalone="no"?><!-- Generator: Gravit.io --><svg xmlns="http://www.w3.org/2000/svg" xmlns:xlink="http://www.w3.org/1999/xlink" style="isolation:isolate" viewBox="0 0 48 48" width="48pt" height="48pt"><linearGradient id="_lgradient_30" x1="0.061897106109324806" y1="0.14716151924516707" x2="0.9904248356713994" y2="0.9865808764728623" gradientTransform="matrix(32.83,0,0,47,7.585,0.5)" gradientUnits="userSpaceOnUse"><stop offset="0%" stop-opacity="1" style="stop-color:rgb(22,181,228)"/><stop offset="98.26086956521739%" stop-opacity="1" style="stop-color:rgb(245,32,250)"/></linearGradient><path d=" M 22.694 8.44 L 10.585 8.44 C 8.929 8.44 7.585 9.784 7.585 11.44 L 7.585 28.42 C 7.585 30.076 8.929 31.42 10.585 31.42 L 31.895 31.42 C 32.447 31.42 32.895 31.868 32.895 32.42 L 32.895 40.88 C 32.895 41.432 32.447 41.88 31.895 41.88 L 16.205 41.88 C 15.653 41.88 15.205 41.432 15.205 40.88 L 15.205 35.75 L 15.205 35.75 C 15.205 34.646 14.309 33.75 13.205 33.75 L 13.205 33.75 C 12.101 33.75 11.205 34.646 11.205 35.75 L 11.205 35.75 L 11.205 42.88 C 11.205 44.536 12.549 45.88 14.205 45.88 L 18.627 45.88 L 18.627 46.5 C 18.627 47.052 19.075 47.5 19.627 47.5 L 21.242 47.5 C 21.794 47.5 22.242 47.052 22.242 46.5 L 22.242 45.88 L 25.857 45.88 L 25.857 45.88 L 25.857 45.88 L 25.857 45.88 L 25.857 46.5 C 25.857 47.052 26.305 47.5 26.857 47.5 L 28.473 47.5 C 29.025 47.5 29.473 47.052 29.473 46.5 L 29.473 45.88 L 33.895 45.88 C 35.551 45.88 36.895 44.536 36.895 42.88 L 36.895 30.42 C 36.895 28.764 35.551 27.42 33.895 27.42 L 12.585 27.42 C 12.033 27.42 11.585 26.972 11.585 26.42 L 11.585 13.44 C 11.585 12.888 12.033 12.44 12.585 12.44 L 35.415 12.44 C 35.967 12.44 36.415 12.888 36.415 13.44 L 36.415 22.19 L 36.415 22.19 C 36.415 23.294 37.311 24.19 38.415 24.19 L 38.415 24.19 C 39.519 24.19 40.415 23.294 40.415 22.19 L 40.415 22.19 L 40.415 11.44 C 40.415 9.784 39.071 8.44 37.415 8.44 L 25.405 8.44 L 25.405 6.521 C 25.729 6.366 26.026 6.156 26.282 5.896 C 26.879 5.308 27.213 4.504 27.213 3.663 C 27.213 2.823 26.879 2.018 26.282 1.431 C 25.695 0.834 24.89 0.5 24.05 0.5 C 23.209 0.5 22.405 0.834 21.817 1.431 C 21.221 2.018 20.886 2.823 20.886 3.663 L 20.886 3.663 L 20.886 3.663 C 20.886 4.504 21.221 5.308 21.817 5.896 C 22.073 6.156 22.37 6.366 22.694 6.521 L 22.694 8.44 Z  M 16.915 16.673 L 20.338 16.673 C 20.89 16.673 21.338 17.121 21.338 17.673 L 21.338 19.288 C 21.338 19.84 20.89 20.288 20.338 20.288 L 16.915 20.288 C 16.363 20.288 15.915 19.84 15.915 19.288 L 15.915 17.673 C 15.915 17.121 16.363 16.673 16.915 16.673 L 16.915 16.673 L 16.915 16.673 L 16.915 16.673 Z  M 27.761 16.673 L 31.184 16.673 C 31.736 16.673 32.184 17.121 32.184 17.673 L 32.184 19.288 C 32.184 19.84 31.736 20.288 31.184 20.288 L 27.761 20.288 C 27.209 20.288 26.761 19.84 26.761 19.288 L 26.761 17.673 C 26.761 17.121 27.209 16.673 27.761 16.673 L 27.761 16.673 L 27.761 16.673 Z  M 22.694 3.663 C 22.694 3.302 22.838 2.958 23.092 2.705 C 23.345 2.452 23.688 2.308 24.05 2.308 C 24.411 2.308 24.755 2.452 25.008 2.705 C 25.261 2.958 25.405 3.302 25.405 3.663 C 25.405 4.025 25.261 4.368 25.008 4.622 C 24.755 4.875 24.411 5.019 24.05 5.019 C 23.688 5.019 23.345 4.875 23.092 4.622 C 22.838 4.368 22.694 4.025 22.694 3.663 L 22.694 3.663 L 22.694 3.663 Z " fill-rule="evenodd" fill="url(#_lgradient_30)"/></svg>
